public/icons/tron.svg

<svg width="114" height="43" viewBox="0 0 114 43" fill="none" xmlns="http://www.w3.org/2000/svg">
<path d="M47.2341 18.9002H45.5469V29.9164H47.2341V18.9002Z" fill="#4C4E52"/>
<path d="M54.7922 14.2338H41.04V15.921H54.7922V14.2338Z" fill="#4C4E52"/>
<path d="M50.2814 18.9002H48.5942V29.9164H50.2814V18.9002Z" fill="#4C4E52"/>
<path d="M96.8926 29.9277H98.595V23.2929L96.8926 21.4005V29.9277Z" fill="#4C4E52"/>
<path d="M105.857 14.2338V26.5344L93.8145 13.1508V29.9278H95.5131V17.6234L107.563 31.0108V14.2338H105.857Z" fill="#4C4E52"/>
<path d="M82.7908 14.2262C78.4626 14.2262 74.9438 17.745 74.9438 22.0732C74.9438 26.4014 78.4626 29.9202 82.7908 29.9202C87.119 29.9202 90.6378 26.4014 90.6378 22.0732C90.6378 17.7488 87.119 14.2262 82.7908 14.2262ZM82.7908 28.2292C79.3974 28.2292 76.6348 25.4704 76.6348 22.0732C76.6348 18.676 79.3936 15.9172 82.7908 15.9172C86.1842 15.9172 88.9468 18.676 88.9468 22.0732C88.9468 25.4666 86.1842 28.2292 82.7908 28.2292Z" fill="#4C4E52"/>
<path d="M82.7907 20.9446C82.1675 20.9446 81.6621 21.45 81.6621 22.0732C81.6621 22.6964 82.1675 23.2018 82.7907 23.2018C83.4139 23.2018 83.9193 22.6964 83.9193 22.0732C83.9193 21.45 83.4139 20.9446 82.7907 20.9446Z" fill="#4C4E52"/>
<path d="M71.991 19.0483C71.991 16.3959 69.8478 14.2375 67.2144 14.2375H58.2388V29.9315H59.9146V15.9399H67.2144C68.9054 15.9399 70.281 17.3345 70.281 19.0483C70.281 20.7545 68.9244 22.1415 67.2486 22.1605L61.294 22.1567V29.9315H62.9698V23.8591H66.8952L70.1024 29.9277H72.0518L68.704 23.6197C70.6382 22.9775 71.991 21.1079 71.991 19.0483Z" fill="#4C4E52"/>
<path d="M29.4387 11.1254L6.57031 6.91876L18.6049 37.1972L35.3705 16.7684L29.4387 11.1254ZM29.0739 12.9798L32.5737 16.3048L23.0053 18.0376L29.0739 12.9798ZM20.9267 17.6918L10.8415 9.32796L27.3221 12.3604L20.9267 17.6918ZM20.2047 19.1738L18.5631 32.7664L9.69771 10.4528L20.2047 19.1738ZM21.7247 19.892L32.3191 17.973L20.1705 32.7778L21.7247 19.892Z" fill="#EB0029"/>
</svg>

<svg xmlns="http://www.w3.org/2000/svg" width="114" height="43" fill="none"><path fill="#4C4E52" d="M47.234 18.9h-1.687v11.016h1.687V18.9ZM54.792 14.234H41.04v1.687h13.752v-1.687ZM50.281 18.9h-1.687v11.016h1.687V18.9ZM96.893 29.928h1.702v-6.635L96.893 21.4v8.527Z"/><path fill="#4C4E52" d="M105.857 14.234v12.3L93.814 13.151v16.777h1.7V17.623l12.049 13.388V14.234h-1.706ZM82.79 14.226c-4.327 0-7.846 3.519-7.846 7.847s3.519 7.847 7.847 7.847 7.847-3.519 7.847-7.847c0-4.324-3.519-7.847-7.847-7.847Zm0 14.003a6.162 6.162 0 0 1-6.155-6.156 6.16 6.16 0 0 1 6.156-6.156 6.162 6.162 0 0 1 6.156 6.156 6.164 6.164 0 0 1-6.156 6.156Z"/><path fill="#4C4E52" d="M82.79 20.945a1.129 1.129 0 1 0 .001 2.257 1.129 1.129 0 0 0 0-2.257ZM71.991 19.048c0-2.652-2.143-4.81-4.777-4.81H58.24v15.694h1.676V15.94h7.3c1.69 0 3.066 1.394 3.066 3.108 0 1.707-1.357 3.094-3.032 3.113l-5.955-.004v7.774h1.676V23.86h3.925l3.207 6.069h1.95l-3.348-6.308c1.934-.643 3.287-2.512 3.287-4.572Z"/><path fill="#EB0029" d="M29.439 11.125 6.57 6.92l12.035 30.278L35.37 16.768l-5.931-5.643Zm-.365 1.855 3.5 3.325-9.569 1.733 6.069-5.058Zm-8.147 4.712L10.842 9.328l16.48 3.032-6.395 5.332Zm-.722 1.482-1.642 13.592-8.865-22.313 10.507 8.72Zm1.52.718 10.594-1.919L20.17 32.778l1.555-12.886Z"/></svg>
